X:1
T:Title
%%score ( 1 2 3 ) { 4 | 5 }
L:1/8
Q:1/4=107
M:4/4
K:G
V:1 treble nm="Grand Piano, Soprano"
V:2 treble 
V:3 treble 
V:4 treble nm="Choir Pad, St. Dorothea, 76.76.78.76"
V:5 bass 
V:1
 [GB]2 [GB]2 [Gc]3 [GB] | [GA]2 [FB]2 [EG]2 [CE]2 | [B,D]2 [B,E]2 [DF]2 [DG]2 | A6 z2 | %4
w: By~Charles~John~Vincent,~Jr.~(1852\-1934) * * *||||
 [DB]2 [GB]2 [Gc]2 [Gc][FB] | [EA]2 [DB]2 [DG]2 [DG]2 | [DF]2 [DF]2 [DG]2 [^CE]2 | D6 z2 | %8
w: ||||
 [DF]2 [EG]2 [FA]2 [Fc]2 | [Gc]3 [DB] [DB]2 [^DA]2 | [E^G]2 [FA]2 [GB]2 [Gd]2 | %11
w: |||
 [Ad]3 [Ac] [Ac]2- [FAc]2 | [GB]2 [GB]2 [Gc]2 B-[FB] | A4 z4 | [EG]2 [EG]2 [DG]2 [CF]2 | [B,G]8 |] %16
w: |||||
V:2
 x8 | x8 | x8 | ^C4 D2 z2 | x8 | x8 | x8 | x8 | x8 | x8 | x8 | z4 G2 z2 | z4 z2 .G2 | %13
 E2 z B [DG]2 [^DG]2 | x8 | x8 |] %16
V:3
 x8 | x8 | x8 | x8 | x8 | x8 | x8 | x8 | x8 | x8 | x8 | x8 | x8 | z2 D2 z4 | x8 | x8 |] %16
V:4
 D2 D2 C3 D | E2 DC[K:bass] B,2 A,2 | B,2 G,2 A,2 B,2 | A,2 G,2 F,2 z2 | G,2 D2 E2 ED | %5
 C2 C2[K:bass] B,2 B,2 | A,2 A,2 B,2 G,2 | G,4 F,2 z2 | B,2 B,2 C2 C2 | E3 D[K:bass] G,2 A,2 | %10
 B,2 C2 D2[K:treble] =F2 | =F3 E D4 | D2 ^D2 E2 =D2 | C2 C2[K:bass] B,2 G,2 | G,2 C2 B,2 A,2 | %15
 G,8 |] %16
V:5
 G,2 F,2 E,3 D, | C,2 D,2 E,2 F,2 | G,2 z2 F,2 E,2 | A,,4 D,2 z2 | z2 G,2 G,2 G,2 | %5
 G,2 F,2 G,2 E,2 | z4 A,,2 A,,2 | D,6 z2 | D,2 D,2 D,2 D,2 | G,3 G, z2 F,2 | E,2 E,2 E,2 E,2 | %11
 A,3 A, B,,4 | G,2 G,2 G,2 G,2 | G,2 F,2 G,2 B,,2 | C,2 A,,2 D,2 D,2 | G,,8 |] %16

